X:1
T:John Newton, 1779 (Hymn 52, Book 2)   88. 88. (L. M.)
T:D minor Oliver Holden, 1800
T:Suspension No copyright. Transcribed from Plain Psalmody, 1800.
%%score [ 1 2 3 4 ]
L:1/8
M:3/4
K:F
V:1 treble nm="Treble" snm="Tr."
V:2 treble nm="Counter" snm="C."
V:3 treble-8 nm="Tenor" snm="T."
V:4 bass nm="Bass" snm="B."
V:1
 A2 | d4 c2 | A4 ^c2 | d4 ^c2 | d4 d2 | (f2 e2) d2 | (F>G A2) G2 | (F>G A2) A2 | A4 A2 | d4 e2 | %10
 f4 e2 | (d2 ed) ^c2 | ^c4 A2 | AA AA ^cc | (d2 ^cd) A2 | FF AA A>A | A4 |] %17
V:2
 F2 | (F2 B2) G2 | A4 ^c2 | A4 F2 | A4 A2 | (A2 G2) F2 | (D>E F2) G2 | (A>G F2) E2 | ^C4 D2 | %9
w: 1.~My|harp * un-|tuned, and|laid a-|side; To|cheer- * ful|hours * * the|harp * * be-|longs; My|
 F4 G2 | (A2 B2) ^c2 | (A2 G2) F2 | E4 E2 | FF FF AA | (A2 AF) D2 | DF DF A>E | D4 |] %17
w: cru- el|foes, * in-|sul- * ting,|cried, Come|sing us one of Zi- on's|songs,~ _ _ Come,|sing us one of Zi- on's|songs.|
V:3
 D2 | (A2 B2) G2 | F4 G2 | (A2 BG) FE | D4 A2 | (d2 ^c2) d2 | (A>G F2) G2 | (A>B A2) GF | E4 D2 | %9
 (A2 B2) G2 | (A2 d2) e2 | (f2 gf) ed | e4 ^c2 | dd dd ee | (f2 ed) ^c2 | dA FA d>^c | d4 |] %17
V:4
 D,2 | D,4 E,2 | F,4 E,2 | D,4 A,,2 | D,4 D,2 | A,4 D,2 | (F,>E, D,2) E,2 | F,4 E,D, | A,,4 D,2 | %9
 D,4 ^C,2 | D,4 A,2 | (D2 ^CD) A,2 | A,4 A,,2 | D,D, D,D, A,A, | (D2 A,2) A,,2 | D,D, F,F, A,>A,, | %16
 D,4 |] %17

